X: 2083
T: New Market, or John Paterson's Mare goes Foremost.
%R: jig
B: Niel Gow & Sons "Complete Repository" v.2 p.8 #3 (continued on p.9)
Z: 2022 John Chambers <jc:trillian.mit.edu>
N: The !segno! symbols don't make much sense, with the D.C. in the last measure and a missing 8th note.
N: This implies that the 2 pickup notes should be played to repeat the 1st strain.
N: So you should probably delete the !segno! symbols entirely.
N: Note that double thin bars have been added every 4 measures; this is for proofreading,
N: but they'd also be useful for musicians, so you might want to leave them as double bars.
M: 6/8
L: 1/16
Q: "BRISK"
P: In Imitation of a Horse Race.
K: F
% - - - - - - - - - -
% Voice 1 reformatted for _ _-bar lines, for compactness and proofreading.
V: 1 staves=2
cB !segno!|\
A2F2A2 f4c2 | A2F2A2 f4c2 | A2F2A2 f2c2B2 | TA6 F4A2 ||\
G2B2G2 g4d2 | B2G2B2 g4d2 | B2G2B2 g2d2c2 | TB6 G4cB || A2F2A2 f4c2 | A2F2A2 f4c2 |
% 2
A2F2A2 f2c2B2 | A6 F2G2A2 || "_exp.ro"TB3AB2 Tc3Bc2 | Td3Bd2 Te3de2 | f3ed2 g2d2c2 | TB6 "_Fine."G4 |]\
c2 | .A.B.c2.F2 .A.B.c2.F2 | ABc2F2 ABc2F2 | ABc2F2 f2c2B2 |
% 3
TA6 F4c2 || Bcd2G2 Bcd2G2 | Bcd2G2 Bcd2G2 | Bcd2G2 g2d2c2 | TB6 G4B2 ||\
.A.B.c2.F2 ABc2F2 | ABc2F2 ABc2F2 | ABc2F2 f2c2B2 | TA6 F2G2A2 ||
% 4
TB3AB2 Tc3Bc2 | Td3Bd2 Te3de2 | f3ed2 g2d2c2 | TB6 G4 |]\
c2 | A2F2A2 f4c2 | .f.g.a.g.f.e f4c2 | .f.g.a.g.f.e f2c2d2 | ~A6 F4A2 ||
% 5
B2G2B2 g4d2 | .=e.f.g.f.e.d g4d2 | .=e.f.g.f.e.d g2d2c2 | TB6 G4c2 ||\
A2F2A2 f4c2 | .f.g.a.g.f.e Tf4c2 | .f.g.a.g.f.e f2c2f2 | ~A6 F2G2A2 ||
% 6
"_exp.ro"TB3AB2 Tc3Bc2 | Td3Bd2 Te3de2 | f3ed2 g2d2c2 | TB6 G4 |] c2 |\
.f.g.a.g.f.e .f.g.a.g.f.e | fgagfe fgagfe | fgagfe f2c2d2 |
% 7
TA6 F2d4 || ga_bag^f gabagf | ga_bag^f gabagf | ga_bag^f g2d2c2 | TB6 G4c2 || fgagfe fgagfe |
% 8
fgagfe fgagfe | fgagfe f2c2f2 | TA6 F2G2A2 ||\
"_exp.ro"TB3AB2 Tc3Bc2 | Td3Bd2 Te3de2 | f3ed2 g2d2c2 | TB6 G4 !segno!|]
% - - - - - - - - - -
% Voice 2 preserves the staff layout in the book.
V: 2 clef=bass middle=d
z2 !segno!|\
[f6F6][f6F6] | [f6F6][f6F6] | [f6F6][f6F6] | [f6F6][f6F6] ||\
[g6G6][g6G6] | [g6G6][g6G6] | [g6G6][g6G6] | [g6G6][g6G6] || [f6F6][f6F6] | [f6F6][f6F6] |
[f6F6][f6F6] | [f6F6][f6F6] || "^exp.ro"[g6G6][a6A6] | [b6B6][c'6c6] | [d'6d6][d'6d6] |
[g6G6]"^Fine."[g4G4] |] z2 | [f6F6][f6F6] | [f6F6][f6F6] | [f6F6][f6F6] |
[f6F6][f6F6] || [g6G6][g6G6] | [g6G6][g6G6] | [g6G6][g6G6] | [g6G6][g6G6] ||
"^g?"[f6F6][f6F6] | [f6F6][f6F6] | [f6F6][f6F6] | [f6F6][f6F6] ||
[g6G6][a6A6] | [b6B6][c'6c6] | [d'6d6][d'6d6] | [g6G6][g4G4] |] z2 |\
[f6F6][f6F6] | [f6F6][f6F6] | [f6F6][f6F6] | [f6F6][f6F6] ||
[g6G6][g6G6] | [g6G6][g6G6] | [g6G6][g6G6] | [g6G6][g6G6] ||\
[f6F6][f6F6] | [f6F6][f6F6] | [f6F6][f6F6] | [f6F6][f6F6] ||
"^exp.ro"[g6G6][a6A6] | [b6B6][c'6c6] | [d'6d6][d'6d6] |  [g6G6][g4G4] |] z2 |\
[f6F6][f6F6] | [f6F6][f6F6] | [f6F6][f6F6] |
[f6F6][f6F6] || [g6G6][g6G6] | [g6G6][g6G6] | [g6G6][g6G6] | [g6G6][g6G6] || [f6F6][f6F6] |
[f6F6][f6F6] | [f6F6][f6F6] | [f6F6][f6F6] ||\
"exp.ro"[g6G6][a6A6] | [b6B6][c'6c6] | [d'6d6][d'6d6] | [g6G6]"D.C.al Signo."[g4G4] |]

% Page 9 is a continuation of New Market jig on p.9.


